src/icons/classification-interchangeable.icon.svg

<svg width="24px" height="24px" viewBox="0 0 24 24" version="1.1" xmlns="http://www.w3.org/2000/svg" xmlns:xlink="http://www.w3.org/1999/xlink">
    <path d="M12,22 C17.5228475,22 22,17.5228475 22,12 C22,6.4771525 17.5228475,2 12,2 C6.4771525,2 2,6.4771525 2,12 C2,17.5228475 6.4771525,22 12,22 Z" id="bg_icon" fill="#7B0CDD"></path>
    <path d="M12.3880551,14.0891242 C12.3880551,14.8354273 12.1195031,15.4234148 11.582391,15.8531044 C11.045279,16.2827941 10.2980448,16.4976357 9.34066612,16.4976357 C8.45867158,16.4976357 7.67845734,16.3317931 7,16.0001028 L7,14.3718133 C7.5578427,14.620581 8.02992885,14.7958465 8.41627262,14.8976151 C8.80261638,14.9993837 9.15597428,15.0502673 9.47635691,15.0502673 C9.86081607,15.0502673 10.1557521,14.9767688 10.3611739,14.8297697 C10.5665957,14.6827706 10.6693051,14.4641599 10.6693051,14.1739309 C10.6693051,14.011855 10.6240753,13.867685 10.5336143,13.7414165 C10.4431533,13.6151481 10.3102908,13.493593 10.1350226,13.3767475 C9.95975447,13.2599021 9.60262742,13.0733291 9.06363076,12.817023 C8.55855696,12.579563 8.17975729,12.3515293 7.92722039,12.1329153 C7.6746835,11.9143013 7.47303392,11.6598836 7.32226562,11.3696546 C7.17149733,11.0794256 7.09611431,10.7402021 7.09611431,10.3519737 C7.09611431,9.62074744 7.34393598,9.04595193 7.83958676,8.6275699 C8.33523754,8.20918788 9.02028072,8 9.89473684,8 C10.3244265,8 10.7343217,8.05088354 11.1244346,8.15265214 C11.5145476,8.25442074 11.9225582,8.39764847 12.3484786,8.58233964 L11.7831003,9.94490132 C11.3421031,9.76397936 10.9774377,9.6377128 10.6890933,9.56609786 C10.400749,9.49448292 10.1171204,9.45867599 9.83819901,9.45867599 C9.50650876,9.45867599 9.25209107,9.53594358 9.07493832,9.69048109 C8.89778557,9.84501859 8.80921053,10.0466682 8.80921053,10.2954359 C8.80921053,10.4499734 8.84501746,10.5847205 8.9166324,10.6996813 C8.98824734,10.8146422 9.10226416,10.9258321 9.25868627,11.0332545 C9.41510838,11.1406769 9.78542745,11.3338459 10.3696546,11.6127673 C11.1423421,11.9821496 11.6719078,12.3524687 11.9583676,12.7237356 C12.2448274,13.0950025 12.3880551,13.5501275 12.3880551,14.0891242 Z M14.2079449,16.38456 L14.2079449,8.11872944 L15.9606176,8.11872944 L15.9606176,16.38456 L14.2079449,16.38456 Z" id="SI" fill="#FFFFFF"></path>
</svg>

<svg xmlns="http://www.w3.org/2000/svg" viewBox="0 0 24 24"><path d="M12 22c5.523 0 10-4.477 10-10S17.523 2 12 2 2 6.477 2 12s4.477 10 10 10z" fill="#7B0CDD"/><path d="M12.388 14.09c0 .745-.268 1.333-.806 1.763-.537.43-1.284.645-2.241.645-.882 0-1.663-.166-2.341-.498v-1.628c.558.249 1.03.424 1.416.526.387.101.74.152 1.06.152.385 0 .68-.073.885-.22.206-.147.308-.366.308-.656a.724.724 0 00-.135-.433 1.518 1.518 0 00-.399-.364c-.175-.117-.532-.304-1.071-.56-.505-.237-.884-.465-1.137-.684a2.568 2.568 0 01-.605-.763c-.15-.29-.226-.63-.226-1.018 0-.731.248-1.306.744-1.724C8.335 8.209 9.02 8 9.895 8c.43 0 .84.05 1.23.153.39.101.798.245 1.223.43l-.565 1.362a8.272 8.272 0 00-1.094-.379 3.521 3.521 0 00-.85-.107c-.332 0-.587.077-.764.231a.765.765 0 00-.266.605c0 .155.036.29.108.405.071.115.185.226.342.333.156.108.526.3 1.11.58.773.37 1.303.74 1.59 1.11.286.372.43.827.43 1.366zm1.82 2.295V8.119h1.753v8.266h-1.753z" fill="#FFF"/></svg>
